src/assets/duotone/Pet.svg

<svg width="24" height="24" viewBox="0 0 24 24"  xmlns="http://www.w3.org/2000/svg">
<path opacity="0.4" d="M19.0798 15.7203C18.4898 12.1903 15.0998 9.32031 11.5198 9.32031C7.62979 9.32031 4.20979 12.4703 3.87979 16.3503C3.74979 17.8503 4.22979 19.2703 5.21979 20.3403C6.19979 21.4103 7.57979 22.0003 9.07979 22.0003H13.7598C15.4498 22.0003 16.9298 21.3403 17.9398 20.1503C18.9498 18.9603 19.3498 17.3803 19.0798 15.7203Z" />
<path d="M10.2801 7.86C11.8983 7.86 13.2101 6.54819 13.2101 4.93C13.2101 3.31181 11.8983 2 10.2801 2C8.6619 2 7.3501 3.31181 7.3501 4.93C7.3501 6.54819 8.6619 7.86 10.2801 7.86Z" />
<path d="M16.94 9.03039C18.2876 9.03039 19.38 7.93797 19.38 6.59039C19.38 5.24282 18.2876 4.15039 16.94 4.15039C15.5924 4.15039 14.5 5.24282 14.5 6.59039C14.5 7.93797 15.5924 9.03039 16.94 9.03039Z" />
<path d="M20.5501 12.9303C21.6271 12.9303 22.5001 12.0572 22.5001 10.9803C22.5001 9.90332 21.6271 9.03027 20.5501 9.03027C19.4731 9.03027 18.6001 9.90332 18.6001 10.9803C18.6001 12.0572 19.4731 12.9303 20.5501 12.9303Z" />
<path d="M3.94 10.9796C5.28757 10.9796 6.38 9.88718 6.38 8.53961C6.38 7.19203 5.28757 6.09961 3.94 6.09961C2.59243 6.09961 1.5 7.19203 1.5 8.53961C1.5 9.88718 2.59243 10.9796 3.94 10.9796Z" />
</svg>

<?xml version="1.0" encoding="UTF-8"?>
<svg width="24" height="24" viewBox="0 0 24 24" xmlns="http://www.w3.org/2000/svg">
 <path d="m19.08 15.72c-0.59-3.53-3.98-6.4-7.56-6.4-3.89 0-7.31 3.15-7.64 7.03-0.13 1.5 0.35 2.92 1.34 3.99 0.98 1.07 2.36 1.66 3.86 1.66h4.68c1.69 0 3.17-0.66 4.18-1.85s1.41-2.77 1.14-4.43z" opacity=".4"/>
 <path d="m10.28 7.86c1.6182 0 2.93-1.3118 2.93-2.93s-1.3118-2.93-2.93-2.93-2.93 1.3118-2.93 2.93 1.3118 2.93 2.93 2.93z"/>
 <path d="m16.94 9.0304c1.3476 0 2.44-1.0924 2.44-2.44 0-1.3476-1.0924-2.44-2.44-2.44s-2.44 1.0924-2.44 2.44c0 1.3476 1.0924 2.44 2.44 2.44z"/>
 <path d="m20.55 12.93c1.077 0 1.95-0.8731 1.95-1.95 0-1.077-0.873-1.95-1.95-1.95s-1.95 0.87305-1.95 1.95c0 1.0769 0.873 1.95 1.95 1.95z"/>
 <path d="m3.94 10.98c1.3476 0 2.44-1.0924 2.44-2.44 0-1.3476-1.0924-2.44-2.44-2.44s-2.44 1.0924-2.44 2.44c0 1.3476 1.0924 2.44 2.44 2.44z"/>
</svg>
